!!!OTL: 224. Khosid
!!!Genre:	Khosid
!!!Mode:	Minor
!!!Listening/dance:	dance
!!!One_Mode:	no
**kern
*thru
*I"P1
*clefG2
*k[b-e-]
*g:
*M2/4
*>A
=1
!LO:TX:a:i:t=G-minor
(8gTL
8dJ)
(8b-TL
8gJ)
=2
8gTL
8dJ
8b-TL
8gJ
=3
16gLL
16aJ
8b-J
16aLL
16b-J
8ccJ
=4
16ddLL
16ccJ
8b-J
16b-LL
16aJ
8gJ
=5
8gTL
8dJ
8b-TL
8gJ
=6
8gTL
8dJ
8b-TL
8gJ
=7
16gLL
16aJ
8b-J
16aLL
16b-J
8ccJ
=8
16ddLL
16ccJ
8b-J
16b-LL
16aJ
8gJ
=9
2g
=
4.g
=10||
*>B
!!!Begin-Modulation
*g:
!LO:TX:a:i:t=G-minor
=23
16b-LL
16aJ
8b-J
(8qdd/
16ccLL)
16b-J
8ccJ
=24
16ddLL
16ccJ
8b-J
16b-LL
16aJ
8gJ
=25
2g
=26
2g
==
*-
